X: 1
T: Jackie Coleman's
M: 4/4
L: 1/8
R: reel
S: Seamus Egan: Traditional Music Of Ireland
K: Dmaj
AF~F2 AFEF|DF~F2 A2Bc|dA~A2 defg|afed BG~G2|
AF~F2 AFEF|DF~F2 A2Bc|d2ce defg|1 afeg fddB:|2 afeg fdec||
|:d2fd Ad (3fed|B=cec Gcec|d2fd Ad (3fed|=cAGE EDe^c|
d2fd Ad (3fed|B=cec ~g3^c|defg ~a3b|1 geag fdec:|2 geag fddB||
